images/3235185.svg

<?xml version="1.0" encoding="UTF-8"?>
<svg xmlns="http://www.w3.org/2000/svg" xmlns:xlink="http://www.w3.org/1999/xlink" width="300pt" height="300pt" viewBox="0 0 300 300" version="1.1">
<defs>
<g>
<symbol overflow="visible" id="glyph0-0">
<path style="stroke:none;" d="M 0.546875 1.9375 L 0.546875 -7.75 L 6.046875 -7.75 L 6.046875 1.9375 Z M 1.171875 1.328125 L 5.4375 1.328125 L 5.4375 -7.140625 L 1.171875 -7.140625 Z M 1.171875 1.328125 "/>
</symbol>
<symbol overflow="visible" id="glyph0-1">
<path style="stroke:none;" d="M 4.328125 -7.28125 C 3.546875 -7.28125 2.921875 -6.984375 2.453125 -6.390625 C 1.992188 -5.804688 1.765625 -5.007812 1.765625 -4 C 1.765625 -2.988281 1.992188 -2.1875 2.453125 -1.59375 C 2.921875 -1.007812 3.546875 -0.71875 4.328125 -0.71875 C 5.117188 -0.71875 5.742188 -1.007812 6.203125 -1.59375 C 6.660156 -2.1875 6.890625 -2.988281 6.890625 -4 C 6.890625 -5.007812 6.660156 -5.804688 6.203125 -6.390625 C 5.742188 -6.984375 5.117188 -7.28125 4.328125 -7.28125 Z M 4.328125 -8.171875 C 5.453125 -8.171875 6.351562 -7.789062 7.03125 -7.03125 C 7.707031 -6.28125 8.046875 -5.269531 8.046875 -4 C 8.046875 -2.738281 7.707031 -1.726562 7.03125 -0.96875 C 6.351562 -0.21875 5.453125 0.15625 4.328125 0.15625 C 3.203125 0.15625 2.300781 -0.21875 1.625 -0.96875 C 0.957031 -1.71875 0.625 -2.726562 0.625 -4 C 0.625 -5.269531 0.957031 -6.28125 1.625 -7.03125 C 2.300781 -7.789062 3.203125 -8.171875 4.328125 -8.171875 Z M 4.328125 -8.171875 "/>
</symbol>
<symbol overflow="visible" id="glyph0-2">
<path style="stroke:none;" d="M 1.078125 -8.015625 L 2.546875 -8.015625 L 6.09375 -1.3125 L 6.09375 -8.015625 L 7.15625 -8.015625 L 7.15625 0 L 5.6875 0 L 2.125 -6.703125 L 2.125 0 L 1.078125 0 Z M 1.078125 -8.015625 "/>
</symbol>
<symbol overflow="visible" id="glyph0-3">
<path style="stroke:none;" d="M 1.078125 -8.015625 L 2.171875 -8.015625 L 2.171875 -4.734375 L 6.109375 -4.734375 L 6.109375 -8.015625 L 7.1875 -8.015625 L 7.1875 0 L 6.109375 0 L 6.109375 -3.8125 L 2.171875 -3.8125 L 2.171875 0 L 1.078125 0 Z M 1.078125 -8.015625 "/>
</symbol>
</g>
</defs>
<g id="surface39153">
<rect x="0" y="0" width="300" height="300" style="fill:rgb(100%,100%,100%);fill-opacity:1;stroke:none;"/>
<path style="fill:none;stroke-width:1.2;stroke-linecap:butt;stroke-linejoin:miter;stroke:rgb(0%,0%,0%);stroke-opacity:1;stroke-miterlimit:10;" d="M 35.25 148.246094 L 48.078125 150.582031 "/>
<path style="fill:none;stroke-width:1.2;stroke-linecap:butt;stroke-linejoin:miter;stroke:rgb(100%,0%,0%);stroke-opacity:1;stroke-miterlimit:10;" d="M 48.078125 150.582031 L 60.90625 152.921875 "/>
<path style="fill:none;stroke-width:1.2;stroke-linecap:butt;stroke-linejoin:miter;stroke:rgb(100%,0%,0%);stroke-opacity:1;stroke-miterlimit:10;" d="M 60.90625 152.921875 L 69.34375 142.984375 "/>
<path style="fill:none;stroke-width:1.2;stroke-linecap:butt;stroke-linejoin:miter;stroke:rgb(0%,0%,0%);stroke-opacity:1;stroke-miterlimit:10;" d="M 69.34375 142.984375 L 77.78125 133.042969 "/>
<path style=" stroke:none;fill-rule:nonzero;fill:rgb(100%,100%,100%);fill-opacity:1;" d="M 56.90625 146.421875 L 65.90625 146.421875 L 65.90625 159.421875 L 56.90625 159.421875 Z M 56.90625 146.421875 "/>
<g style="fill:rgb(100%,0%,0%);fill-opacity:1;">
  <use xlink:href="#glyph0-1" x="56.90625" y="156.323242"/>
</g>
<path style="fill:none;stroke-width:1.2;stroke-linecap:butt;stroke-linejoin:miter;stroke:rgb(0%,0%,0%);stroke-opacity:1;stroke-miterlimit:10;" d="M 77.78125 133.042969 L 69.007812 108.488281 "/>
<path style="fill:none;stroke-width:1.2;stroke-linecap:butt;stroke-linejoin:miter;stroke:rgb(0%,0%,0%);stroke-opacity:1;stroke-miterlimit:10;" d="M 82.683594 128.523438 L 75.660156 108.878906 "/>
<path style="fill:none;stroke-width:1.2;stroke-linecap:butt;stroke-linejoin:miter;stroke:rgb(0%,0%,0%);stroke-opacity:1;stroke-miterlimit:10;" d="M 103.4375 137.722656 L 77.78125 133.042969 "/>
<path style="fill:none;stroke-width:1.2;stroke-linecap:butt;stroke-linejoin:miter;stroke:rgb(0%,0%,0%);stroke-opacity:1;stroke-miterlimit:10;" d="M 69.007812 108.488281 L 85.886719 88.609375 "/>
<path style="fill:none;stroke-width:1.2;stroke-linecap:butt;stroke-linejoin:miter;stroke:rgb(0%,0%,0%);stroke-opacity:1;stroke-miterlimit:10;" d="M 85.886719 88.609375 L 111.539062 93.289062 "/>
<path style="fill:none;stroke-width:1.2;stroke-linecap:butt;stroke-linejoin:miter;stroke:rgb(0%,0%,0%);stroke-opacity:1;stroke-miterlimit:10;" d="M 87.347656 95.113281 L 107.875 98.855469 "/>
<path style="fill:none;stroke-width:1.2;stroke-linecap:butt;stroke-linejoin:miter;stroke:rgb(0%,0%,0%);stroke-opacity:1;stroke-miterlimit:10;" d="M 111.539062 93.289062 L 120.316406 117.84375 "/>
<path style="fill:none;stroke-width:1.2;stroke-linecap:butt;stroke-linejoin:miter;stroke:rgb(0%,0%,0%);stroke-opacity:1;stroke-miterlimit:10;" d="M 120.316406 117.84375 L 103.4375 137.722656 "/>
<path style="fill:none;stroke-width:1.2;stroke-linecap:butt;stroke-linejoin:miter;stroke:rgb(0%,0%,0%);stroke-opacity:1;stroke-miterlimit:10;" d="M 113.949219 115.859375 L 100.449219 131.761719 "/>
<path style="fill:none;stroke-width:1.2;stroke-linecap:butt;stroke-linejoin:miter;stroke:rgb(0%,0%,0%);stroke-opacity:1;stroke-miterlimit:10;" d="M 103.4375 137.722656 L 112.214844 162.277344 "/>
<path style="fill:none;stroke-width:1.2;stroke-linecap:butt;stroke-linejoin:miter;stroke:rgb(0%,0%,0%);stroke-opacity:1;stroke-miterlimit:10;" d="M 112.214844 162.277344 L 95.335938 182.15625 "/>
<path style="fill:none;stroke-width:1.2;stroke-linecap:butt;stroke-linejoin:miter;stroke:rgb(0%,0%,0%);stroke-opacity:1;stroke-miterlimit:10;" d="M 115.203125 168.238281 L 101.699219 184.140625 "/>
<path style="fill:none;stroke-width:1.2;stroke-linecap:butt;stroke-linejoin:miter;stroke:rgb(0%,0%,0%);stroke-opacity:1;stroke-miterlimit:10;" d="M 137.867188 166.957031 L 112.214844 162.277344 "/>
<path style="fill:none;stroke-width:1.2;stroke-linecap:butt;stroke-linejoin:miter;stroke:rgb(0%,0%,0%);stroke-opacity:1;stroke-miterlimit:10;" d="M 95.335938 182.15625 L 99.722656 194.433594 "/>
<path style="fill:none;stroke-width:1.2;stroke-linecap:butt;stroke-linejoin:miter;stroke:rgb(0%,0%,100%);stroke-opacity:1;stroke-miterlimit:10;" d="M 99.722656 194.433594 L 104.109375 206.710938 "/>
<path style="fill:none;stroke-width:1.2;stroke-linecap:butt;stroke-linejoin:miter;stroke:rgb(0%,0%,100%);stroke-opacity:1;stroke-miterlimit:10;" d="M 104.109375 206.710938 L 116.9375 209.050781 "/>
<path style="fill:none;stroke-width:1.2;stroke-linecap:butt;stroke-linejoin:miter;stroke:rgb(0%,0%,0%);stroke-opacity:1;stroke-miterlimit:10;" d="M 116.9375 209.050781 L 129.765625 211.390625 "/>
<path style="fill:none;stroke-width:1.2;stroke-linecap:butt;stroke-linejoin:miter;stroke:rgb(0%,0%,100%);stroke-opacity:1;stroke-miterlimit:10;" d="M 107.777344 201.144531 L 118.039062 203.015625 "/>
<path style="fill:none;stroke-width:1.2;stroke-linecap:butt;stroke-linejoin:miter;stroke:rgb(0%,0%,0%);stroke-opacity:1;stroke-miterlimit:10;" d="M 118.039062 203.015625 L 128.300781 204.886719 "/>
<path style=" stroke:none;fill-rule:nonzero;fill:rgb(100%,100%,100%);fill-opacity:1;" d="M 100.109375 200.210938 L 108.109375 200.210938 L 108.109375 213.210938 L 100.109375 213.210938 Z M 100.109375 200.210938 "/>
<g style="fill:rgb(0%,0%,100%);fill-opacity:1;">
  <use xlink:href="#glyph0-2" x="100.109375" y="210.112305"/>
</g>
<path style="fill:none;stroke-width:1.2;stroke-linecap:butt;stroke-linejoin:miter;stroke:rgb(0%,0%,0%);stroke-opacity:1;stroke-miterlimit:10;" d="M 129.765625 211.390625 L 138.203125 201.453125 "/>
<path style="fill:none;stroke-width:1.2;stroke-linecap:butt;stroke-linejoin:miter;stroke:rgb(0%,0%,100%);stroke-opacity:1;stroke-miterlimit:10;" d="M 138.203125 201.453125 L 146.644531 191.511719 "/>
<path style="fill:none;stroke-width:1.2;stroke-linecap:butt;stroke-linejoin:miter;stroke:rgb(0%,0%,100%);stroke-opacity:1;stroke-miterlimit:10;" d="M 146.644531 191.511719 L 142.253906 179.234375 "/>
<path style="fill:none;stroke-width:1.2;stroke-linecap:butt;stroke-linejoin:miter;stroke:rgb(0%,0%,0%);stroke-opacity:1;stroke-miterlimit:10;" d="M 142.253906 179.234375 L 137.867188 166.957031 "/>
<path style="fill:none;stroke-width:1.2;stroke-linecap:butt;stroke-linejoin:miter;stroke:rgb(0%,0%,100%);stroke-opacity:1;stroke-miterlimit:10;" d="M 139.988281 191.121094 L 136.476562 181.300781 "/>
<path style="fill:none;stroke-width:1.2;stroke-linecap:butt;stroke-linejoin:miter;stroke:rgb(0%,0%,0%);stroke-opacity:1;stroke-miterlimit:10;" d="M 136.476562 181.300781 L 132.96875 171.476562 "/>
<path style=" stroke:none;fill-rule:nonzero;fill:rgb(100%,100%,100%);fill-opacity:1;" d="M 142.644531 185.011719 L 150.644531 185.011719 L 150.644531 198.011719 L 142.644531 198.011719 Z M 142.644531 185.011719 "/>
<g style="fill:rgb(0%,0%,100%);fill-opacity:1;">
  <use xlink:href="#glyph0-2" x="142.644531" y="194.913086"/>
</g>
<path style="fill:none;stroke-width:1.2;stroke-linecap:butt;stroke-linejoin:miter;stroke:rgb(0%,0%,0%);stroke-opacity:1;stroke-miterlimit:10;" d="M 137.867188 166.957031 L 146.308594 157.015625 "/>
<path style="fill:none;stroke-width:1.2;stroke-linecap:butt;stroke-linejoin:miter;stroke:rgb(0%,0%,100%);stroke-opacity:1;stroke-miterlimit:10;" d="M 146.308594 157.015625 L 154.746094 147.078125 "/>
<path style="fill:none;stroke-width:1.2;stroke-linecap:butt;stroke-linejoin:miter;stroke:rgb(0%,0%,100%);stroke-opacity:1;stroke-miterlimit:10;" d="M 154.746094 147.078125 L 167.574219 149.417969 "/>
<path style="fill:none;stroke-width:1.2;stroke-linecap:butt;stroke-linejoin:miter;stroke:rgb(0%,0%,0%);stroke-opacity:1;stroke-miterlimit:10;" d="M 167.574219 149.417969 L 180.398438 151.753906 "/>
<path style=" stroke:none;fill-rule:nonzero;fill:rgb(100%,100%,100%);fill-opacity:1;" d="M 146.746094 140.578125 L 163.746094 140.578125 L 163.746094 153.578125 L 146.746094 153.578125 Z M 146.746094 140.578125 "/>
<g style="fill:rgb(0%,0%,100%);fill-opacity:1;">
  <use xlink:href="#glyph0-2" x="146.746094" y="150.479492"/>
  <use xlink:href="#glyph0-3" x="154.729492" y="150.479492"/>
</g>
<path style="fill:none;stroke-width:1.2;stroke-linecap:butt;stroke-linejoin:miter;stroke:rgb(0%,0%,0%);stroke-opacity:1;stroke-miterlimit:10;" d="M 180.398438 151.753906 L 197.277344 131.875 "/>
<path style="fill:none;stroke-width:1.2;stroke-linecap:butt;stroke-linejoin:miter;stroke:rgb(0%,0%,0%);stroke-opacity:1;stroke-miterlimit:10;" d="M 197.277344 131.875 L 222.933594 136.554688 "/>
<path style="fill:none;stroke-width:1.2;stroke-linecap:butt;stroke-linejoin:miter;stroke:rgb(0%,0%,0%);stroke-opacity:1;stroke-miterlimit:10;" d="M 222.933594 136.554688 L 241.796875 118.550781 "/>
<path style="fill:none;stroke-width:1.2;stroke-linecap:butt;stroke-linejoin:miter;stroke:rgb(0%,0%,0%);stroke-opacity:1;stroke-miterlimit:10;" d="M 229.054688 139.191406 L 244.148438 124.789062 "/>
<path style="fill:none;stroke-width:1.2;stroke-linecap:butt;stroke-linejoin:miter;stroke:rgb(0%,0%,100%);stroke-opacity:1;stroke-miterlimit:10;" d="M 234.226562 160.058594 L 228.582031 148.304688 "/>
<path style="fill:none;stroke-width:1.2;stroke-linecap:butt;stroke-linejoin:miter;stroke:rgb(0%,0%,0%);stroke-opacity:1;stroke-miterlimit:10;" d="M 228.582031 148.304688 L 222.933594 136.554688 "/>
<path style="fill:none;stroke-width:1.2;stroke-linecap:butt;stroke-linejoin:miter;stroke:rgb(0%,0%,0%);stroke-opacity:1;stroke-miterlimit:10;" d="M 241.796875 118.550781 L 253.273438 124.738281 "/>
<path style="fill:none;stroke-width:1.2;stroke-linecap:butt;stroke-linejoin:miter;stroke:rgb(0%,0%,100%);stroke-opacity:1;stroke-miterlimit:10;" d="M 253.273438 124.738281 L 264.75 130.925781 "/>
<path style="fill:none;stroke-width:1.2;stroke-linecap:butt;stroke-linejoin:miter;stroke:rgb(0%,0%,100%);stroke-opacity:1;stroke-miterlimit:10;" d="M 264.75 130.925781 L 262.410156 143.753906 "/>
<path style="fill:none;stroke-width:1.2;stroke-linecap:butt;stroke-linejoin:miter;stroke:rgb(0%,0%,0%);stroke-opacity:1;stroke-miterlimit:10;" d="M 262.410156 143.753906 L 260.070312 156.578125 "/>
<path style="fill:none;stroke-width:1.2;stroke-linecap:butt;stroke-linejoin:miter;stroke:rgb(0%,0%,100%);stroke-opacity:1;stroke-miterlimit:10;" d="M 258.246094 132.390625 L 256.375 142.652344 "/>
<path style="fill:none;stroke-width:1.2;stroke-linecap:butt;stroke-linejoin:miter;stroke:rgb(0%,0%,0%);stroke-opacity:1;stroke-miterlimit:10;" d="M 256.375 142.652344 L 254.503906 152.914062 "/>
<path style=" stroke:none;fill-rule:nonzero;fill:rgb(100%,100%,100%);fill-opacity:1;" d="M 260.75 124.425781 L 268.75 124.425781 L 268.75 137.425781 L 260.75 137.425781 Z M 260.75 124.425781 "/>
<g style="fill:rgb(0%,0%,100%);fill-opacity:1;">
  <use xlink:href="#glyph0-2" x="260.75" y="134.327148"/>
</g>
<path style="fill:none;stroke-width:1.2;stroke-linecap:butt;stroke-linejoin:miter;stroke:rgb(0%,0%,0%);stroke-opacity:1;stroke-miterlimit:10;" d="M 260.070312 156.578125 L 247.148438 158.320312 "/>
<path style="fill:none;stroke-width:1.2;stroke-linecap:butt;stroke-linejoin:miter;stroke:rgb(0%,0%,100%);stroke-opacity:1;stroke-miterlimit:10;" d="M 247.148438 158.320312 L 234.226562 160.058594 "/>
<path style=" stroke:none;fill-rule:nonzero;fill:rgb(100%,100%,100%);fill-opacity:1;" d="M 226.226562 153.558594 L 243.226562 153.558594 L 243.226562 166.558594 L 226.226562 166.558594 Z M 226.226562 153.558594 "/>
<g style="fill:rgb(0%,0%,100%);fill-opacity:1;">
  <use xlink:href="#glyph0-2" x="226.226562" y="163.459961"/>
  <use xlink:href="#glyph0-3" x="234.209961" y="163.459961"/>
</g>
</g>
</svg>

<svg xmlns="http://www.w3.org/2000/svg" xmlns:xlink="http://www.w3.org/1999/xlink" width="300pt" height="300pt" viewBox="0 0 300 300"><defs><symbol overflow="visible"><path d="M.547 1.938V-7.75h5.5v9.688zm.625-.61h4.266v-8.47H1.171zm0 0"/></symbol><symbol overflow="visible" id="a"><path d="M4.328-7.28c-.78 0-1.406.296-1.875.89-.46.585-.687 1.382-.687 2.39 0 1.012.226 1.813.687 2.406.47.586 1.094.875 1.875.875.79 0 1.414-.288 1.875-.874.457-.593.688-1.394.688-2.406 0-1.008-.23-1.805-.687-2.39-.46-.594-1.086-.89-1.875-.89zm0-.892c1.125 0 2.024.383 2.703 1.14C7.708-6.28 8.048-5.27 8.048-4c0 1.262-.34 2.273-1.016 3.03C6.353-.22 5.454.157 4.33.157S2.3-.22 1.625-.97c-.668-.75-1-1.757-1-3.03 0-1.27.332-2.28 1-3.03.676-.76 1.578-1.142 2.703-1.142zm0 0"/></symbol><symbol overflow="visible" id="b"><path d="M1.078-8.016h1.47l3.546 6.704v-6.704h1.062V0H5.688L2.124-6.703V0H1.078zm0 0"/></symbol><symbol overflow="visible" id="c"><path d="M1.078-8.016h1.094v3.282H6.11v-3.282h1.077V0H6.11v-3.813H2.17V0H1.078zm0 0"/></symbol></defs><g><path fill="#fff" d="M0 0h300v300H0z"/><path d="M35.25 148.246l12.828 2.336" stroke-width="1.2" stroke="#000" stroke-miterlimit="10" fill="none"/><path d="M48.078 150.582l12.828 2.34M60.906 152.922l8.438-9.938" stroke-width="1.2" stroke="#f00" stroke-miterlimit="10" fill="none"/><path d="M69.344 142.984l8.437-9.94" stroke-width="1.2" stroke="#000" stroke-miterlimit="10" fill="none"/><path d="M56.906 146.422h9v13h-9zm0 0" fill="#fff"/><use xlink:href="#a" x="56.906" y="156.323" fill="#f00"/><path d="M77.78 133.043l-8.772-24.555M82.684 128.523L75.66 108.88M103.438 137.723l-25.657-4.68M69.008 108.488l16.88-19.88M85.887 88.61l25.652 4.68M87.348 95.113l20.527 3.742M111.54 93.29l8.776 24.554M120.316 117.844l-16.88 19.88M113.95 115.86l-13.5 15.902M103.438 137.723l8.777 24.554M112.215 162.277l-16.88 19.88M115.203 168.238L101.7 184.14M137.867 166.957l-25.652-4.68M95.336 182.156l4.387 12.278" stroke-width="1.2" stroke="#000" stroke-miterlimit="10" fill="none"/><path d="M99.723 194.434l4.386 12.277M104.11 206.71l12.828 2.34" stroke-width="1.2" stroke="#00f" stroke-miterlimit="10" fill="none"/><path d="M116.938 209.05l12.828 2.34" stroke-width="1.2" stroke="#000" stroke-miterlimit="10" fill="none"/><path d="M107.777 201.145l10.262 1.87" stroke-width="1.2" stroke="#00f" stroke-miterlimit="10" fill="none"/><path d="M118.04 203.016l10.26 1.87" stroke-width="1.2" stroke="#000" stroke-miterlimit="10" fill="none"/><path d="M100.11 200.21h8v13h-8zm0 0" fill="#fff"/><use xlink:href="#b" x="100.109" y="210.112" fill="#00f"/><path d="M129.766 211.39l8.437-9.937" stroke-width="1.2" stroke="#000" stroke-miterlimit="10" fill="none"/><path d="M138.203 201.453l8.442-9.94M146.645 191.512l-4.39-12.278" stroke-width="1.2" stroke="#00f" stroke-miterlimit="10" fill="none"/><path d="M142.254 179.234l-4.387-12.277" stroke-width="1.2" stroke="#000" stroke-miterlimit="10" fill="none"/><path d="M139.988 191.12l-3.51-9.82" stroke-width="1.2" stroke="#00f" stroke-miterlimit="10" fill="none"/><path d="M136.477 181.3l-3.508-9.823" stroke-width="1.2" stroke="#000" stroke-miterlimit="10" fill="none"/><path d="M142.645 185.012h8v13h-8zm0 0" fill="#fff"/><use xlink:href="#b" x="142.645" y="194.913" fill="#00f"/><path d="M137.867 166.957l8.442-9.94" stroke-width="1.2" stroke="#000" stroke-miterlimit="10" fill="none"/><path d="M146.31 157.016l8.436-9.938M154.746 147.078l12.828 2.34" stroke-width="1.2" stroke="#00f" stroke-miterlimit="10" fill="none"/><path d="M167.574 149.418l12.824 2.336" stroke-width="1.2" stroke="#000" stroke-miterlimit="10" fill="none"/><path d="M146.746 140.578h17v13h-17zm0 0" fill="#fff"/><g fill="#00f"><use xlink:href="#b" x="146.746" y="150.479"/><use xlink:href="#c" x="154.729" y="150.479"/></g><path d="M180.398 151.754l16.88-19.88M197.277 131.875l25.657 4.68M222.934 136.555l18.863-18.004M229.055 139.19l15.093-14.4" stroke-width="1.2" stroke="#000" stroke-miterlimit="10" fill="none"/><path d="M234.227 160.06l-5.645-11.755" stroke-width="1.2" stroke="#00f" stroke-miterlimit="10" fill="none"/><path d="M228.582 148.305l-5.648-11.75M241.797 118.55l11.476 6.188" stroke-width="1.2" stroke="#000" stroke-miterlimit="10" fill="none"/><path d="M253.273 124.738l11.477 6.188M264.75 130.926l-2.34 12.828" stroke-width="1.2" stroke="#00f" stroke-miterlimit="10" fill="none"/><path d="M262.41 143.754l-2.34 12.824" stroke-width="1.2" stroke="#000" stroke-miterlimit="10" fill="none"/><path d="M258.246 132.39l-1.87 10.262" stroke-width="1.2" stroke="#00f" stroke-miterlimit="10" fill="none"/><path d="M256.375 142.652l-1.87 10.262" stroke-width="1.2" stroke="#000" stroke-miterlimit="10" fill="none"/><path d="M260.75 124.426h8v13h-8zm0 0" fill="#fff"/><use xlink:href="#b" x="260.75" y="134.327" fill="#00f"/><path d="M260.07 156.578l-12.922 1.742" stroke-width="1.2" stroke="#000" stroke-miterlimit="10" fill="none"/><path d="M247.148 158.32l-12.92 1.74" stroke-width="1.2" stroke="#00f" stroke-miterlimit="10" fill="none"/><path d="M226.227 153.56h17v13h-17zm0 0" fill="#fff"/><g fill="#00f"><use xlink:href="#b" x="226.227" y="163.46"/><use xlink:href="#c" x="234.21" y="163.46"/></g></g></svg>
